X:332
T:P.M. Sam Scott 
C:Joe Buchanan's Scottish Tome - Page 113.0
I:113 0
C:P.M. Peter Macleod
R:March
Z:Carl Allison
L:1/8
M:6/8
K:D
f | "D"A>BA d>eg | {fg}f3 (d2g) | f>ed "G"B>cd | "A7"e>fe c>BA |
"D"A>BA de/g | {fg}f3 (d2g) | "E7"f>ge "A7"A>ce | "D"{c}d3 d<d :|
A | "D"d>ef a>Aa | f3 (a2 g) | f>ed "G"B>cd | "A7"e>fe c>BA |
"D"d>ef a>Aa | f3 (a2 g) | "A7"f>ge A>ce | "D"{c}d3 d<d A |
"D"d>ef a>Aa | f3 (a2 g) | f>ed "G"B>cd | "A7"e>fe c>BA |
"D"A>BA d>eg | f3 (d2g) | "A7"f>ge A>ce | "D"{c}d3 d<d A |]
{g}f | "D"A>Bd "G"B>cd | "D"A>df "A7"e>fg | f>ed B>cd | "A7"efe c>BA |
"D"A>Bd "G"B>cd | "D"A>df "A7"e>fg | "D"f>ge A>ce | {c} d3 d<d :|
(f/>g/) | "D"a>ga "F#m"f>gf | "Em"g>fg "A7"e>fe | "D"f>gf "G"B>cd | "E7"e>fe "A7"c>BA |
"D"a>ga "F#m"f>gf | "Em"g>fg "A7"e>fe | f>ge A>ce | "D"{c}d3 d<d (f/>g/) |
"D"a>ga "F#m"f>gf | "Em"g>fg "A7"e>fe | "D"(f>g)f "G"B>cd | "E7"e>fe "A7"c>BA |
"D"A>Bd "G"B>cd | "D"A>df "A7"e>fg | (f>g)e A>ce | "D"{c}d3 d<d |

